outputs/icons/action/calendar_sharp.svg

<svg xmlns="http://www.w3.org/2000/svg" width="1200" height="1200" fill="none"><g clip-path="url(#a)"><path fill="#000" d="M1100 150H950V50H850v100H350V50H250v100H100v1000h1000zm-100 900H200V400h800z"/></g><defs><clipPath id="a"><path fill="#fff" d="M0 0h1200v1200H0z"/></clipPath></defs></svg>

<svg width="1200" height="1200" viewBox="0 0 1200 1200" fill="none" xmlns="http://www.w3.org/2000/svg"><g clip-path="url(#clip0_117_772)"><path d="M1100 150H950V50H850V150H350V50H250V150H100V1150H1100V150ZM1000 1050H200V400H1000V1050Z" fill="#1D1E23"/></g><defs><clipPath id="clip0_117_772"><path width="24" fill="white" d="M0 0H1200V1200H0V0z"/></clipPath></defs></svg>
